X:1
T:Title
%%score { 1 | ( 2 3 ) }
L:1/8
Q:1/4=81
M:6/8
K:Db
V:1 treble nm="Grand Piano"
V:2 bass 
V:3 bass 
V:1
 F>ED A2 B | E2 [EG] F3 | FED [Fd][Ge][Fd] | [Ec]2 [DB] [CA]2 [GA] | [Fd]2 [Fd] [Ac]B[DFA] | %5
w: M.~A.~Sea * * * *|||||
 [DGB]2 [DGB] [DFA]2 [A,DF] | [Fd]2 [Fd] [Ac]B[DFA] | [DGB]2 [DGB] [DFA]2 [Fd] | %8
w: |||
 [Fd]2 [DF] .[DF]2[K:bass] [G,CE] | [F,D]6 |] %10
w: ||
V:2
 [D,A,D]>[D,G,C][D,F,] [F,D]2 [G,D] | [A,C]2 [A,,A,] [D,A,D]3 | z3 .A,3 | %3
 [E,A,]2 [E,=G,] [A,,A,]2 [C,A,] | z3 .[D,D]3 | G,,2 G,, D,2 D, | z3 .[D,D]3 | %7
 G,,2 G,, D,2 [D,A,] | [B,,B,]2 [B,,B,] z A,A,, | D,6 |] %10
V:3
 x6 | x6 | [D,A,D][D,G,C][D,F,] D,C,[D,A,] | x6 | [D,A,]2 [D,A,] z GD, | x6 | %6
 [D,A,]2 [D,A,] z GD, | x6 | z3 .A,,3 | x6 |] %10

